poi/svg/2103.svg

<?xml version="1.0" encoding="UTF-8" standalone="no"?>
<svg
   xmlns:dc="http://purl.org/dc/elements/1.1/"
   xmlns:cc="http://creativecommons.org/ns#"
   xmlns:rdf="http://www.w3.org/1999/02/22-rdf-syntax-ns#"
   xmlns:svg="http://www.w3.org/2000/svg"
   xmlns="http://www.w3.org/2000/svg"
   xmlns:sodipodi="http://sodipodi.sourceforge.net/DTD/sodipodi-0.dtd"
   xmlns:inkscape="http://www.inkscape.org/namespaces/inkscape"
   inkscape:version="1.0 (4035a4fb49, 2020-05-01)"
   sodipodi:docname="2103.svg"
   id="svg20"
   version="1.2"
   viewBox="0 0 42.519639 42.519639"
   height="14.999999mm"
   width="14.999999mm">
  <metadata
     id="metadata24">
    <rdf:RDF>
      <cc:Work
         rdf:about="">
        <dc:format>image/svg+xml</dc:format>
        <dc:type
           rdf:resource="http://purl.org/dc/dcmitype/StillImage" />
        <dc:title>Qt SVG Document</dc:title>
      </cc:Work>
    </rdf:RDF>
  </metadata>
  <sodipodi:namedview
     inkscape:current-layer="svg20"
     inkscape:window-maximized="0"
     inkscape:window-y="0"
     inkscape:window-x="0"
     inkscape:cy="28.346482"
     inkscape:cx="28.346482"
     inkscape:zoom="5.8410537"
     showgrid="false"
     id="namedview22"
     inkscape:window-height="480"
     inkscape:window-width="1034"
     inkscape:pageshadow="2"
     inkscape:pageopacity="0"
     guidetolerance="10"
     gridtolerance="10"
     objecttolerance="10"
     borderopacity="1"
     bordercolor="#666666"
     pagecolor="#ffffff" />
  <title
     id="title2">Qt SVG Document</title>
  <desc
     id="desc4">Generated with Qt</desc>
  <defs
     id="defs6" />
  <g
     transform="translate(5.25984,5.25984)"
     id="g18"
     stroke-linejoin="bevel"
     stroke-linecap="square"
     fill-rule="evenodd"
     stroke-width="1"
     stroke="#000000"
     fill="none">
    <g
       id="g10"
       font-style="normal"
       font-weight="400"
       font-size="7.8px"
       font-family="'MS Shell Dlg 2'"
       stroke="none"
       fill-opacity="1"
       fill="#a61215">
      <path
         id="path8"
         d="M 37.2598,16 C 37.2598,27.7415 27.7415,37.2598 16,37.2598 4.25851,37.2598 -5.25984,27.7415 -5.25984,16 -5.25984,4.25851 4.25851,-5.25984 16,-5.25984 27.7415,-5.25984 37.2598,4.25851 37.2598,16"
         fill-rule="evenodd"
         vector-effect="non-scaling-stroke" />
    </g>
    <g
       id="g14"
       font-style="normal"
       font-weight="400"
       font-size="7.8px"
       font-family="'MS Shell Dlg 2'"
       transform="translate(14.8661,12.0315)"
       stroke="none"
       fill-opacity="0.94902"
       fill="#ffffff">
      <path
         id="path12"
         d="m -4.01514,13.8311 c 0.46192,0 0.82585,0.1364 1.0918,0.4094 0.26595,0.2729 0.39893,0.6054 0.39893,0.9973 0,0.4619 -0.13298,0.8363 -0.39893,1.1233 -0.26595,0.2869 -0.62988,0.4304 -1.0918,0.4304 -0.40592,0 -0.75236,-0.1435 -1.0393,-0.4304 -0.28695,-0.287 -0.43042,-0.6614 -0.43042,-1.1233 0,-0.3919 0.14347,-0.7244 0.43042,-0.9973 0.28694,-0.273 0.63338,-0.4094 1.0393,-0.4094 m 11.8208,0 c 0.40593,0 0.75236,0.1364 1.03931,0.4094 0.28695,0.2729 0.43042,0.6054 0.43042,0.9973 0,0.4619 -0.14347,0.8363 -0.43042,1.1233 -0.28695,0.2869 -0.63338,0.4304 -1.03931,0.4304 -0.46191,0 -0.82934,-0.1435 -1.10229,-0.4304 -0.27295,-0.287 -0.40942,-0.6614 -0.40942,-1.1233 0,-0.3919 0.13647,-0.7244 0.40942,-0.9973 0.27295,-0.273 0.64038,-0.4094 1.10229,-0.4094 M 10.9971,-2.48291 c 0.3919,0 0.6963,0.10148 0.9133,0.30444 0.217,0.20297 0.2974,0.46542 0.2415,0.78736 -0.168,1.3997363 -0.3045,2.6735 -0.4095,3.82129 C 11.6375,3.57796 11.515,4.80973 11.375,6.12549 11.263,6.69938 11.0146,7.1298 10.6296,7.41675 10.2447,7.70369 9.82129,7.84717 9.35938,7.84717 H 3.8584 C 3.59245,7.84717 3.337,7.89616 3.09204,7.99414 2.84709,8.09212 2.58813,8.2076 2.31519,8.34058 2.04224,8.47355 1.76229,8.58903 1.47534,8.68701 1.1884,8.78499 0.890951,8.83398 0.583008,8.83398 c -0.405925,0 -0.91683,0.014 -1.532715,0.042 -0.615883,0.02799 -1.168783,0.04199 -1.658693,0.04199 -0.30794,0 -0.61938,0.13647 -0.93432,0.40942 -0.31495,0.27295 -0.5424,0.49341 -0.68238,0.66138 -0.23795,0.29393 -0.41992,0.55643 -0.5459,0.78733 -0.12597,0.231 -0.21696,0.5424 -0.27295,0.9343 H 10.4302 c 0.1679,0 0.2974,0.0805 0.3884,0.2415 0.091,0.161 0.1365,0.3254 0.1365,0.4934 0,0.168 -0.0455,0.3325 -0.1365,0.4934 -0.091,0.161 -0.2205,0.2415 -0.3884,0.2415 H -6.55566 c -0.11198,-0.7699 -0.09799,-1.4138 0.04199,-1.9317 0.13997,-0.5179 0.39892,-1.0218 0.77685,-1.51168 0.08399,-0.08399 0.20647,-0.22046 0.36744,-0.40943 0.16097,-0.18896 0.26945,-0.32544 0.32543,-0.40942 0,-0.13998 -0.05948,-0.35344 -0.17846,-0.64038 C -5.34139,7.99064 -5.42887,7.74919 -5.48486,7.55322 -5.94678,6.16748 -6.39819,4.82373 -6.83911,3.52197 -7.28003,2.22021 -7.73145,0.911458 -8.19336,-0.404297 -8.5013,-1.35612 -8.86523,-2.04549 -9.28516,-2.47241 -9.70508,-2.89933 -10.069,-3.11279 -10.377,-3.11279 h -1.5537 c -0.3499,0 -0.6228,-0.10148 -0.8188,-0.30445 -0.196,-0.20296 -0.315,-0.41992 -0.3569,-0.65088 -0.042,-0.23095 0,-0.44441 0.1259,-0.64038 0.126,-0.19596 0.364,-0.29394 0.7139,-0.29394 h 1.8896 c 0.60193,0 1.10934,0.12947 1.52226,0.38843 0.41293,0.25895 0.76986,0.55289 1.0708,0.88183 0.30095,0.32894 0.5459,0.61939 0.73487,0.87134 0.18896,0.25195 0.32544,0.37793 0.40942,0.37793 H 10.9971 M -1.87354,1.7793 -2.12549,-0.572266 H -6.13574 L -5.31689,1.7793 h 3.44335 m 0.5669,4.05224 -0.29395,-2.16259 H -4.75 l 0.73486,2.16259 h 2.7085 M 3.8584,3.66895 H 0.331055 L 0.583008,5.83154 H 3.8584 V 3.66895 m 0,-4.241216 H -0.23584 L 0.0161133,1.7793 H 3.8584 V -0.572266 M 9.44336,3.66895 H 5.74805 V 5.83154 H 9.27539 L 9.44336,3.66895 M 9.82129,-0.572266 H 5.74805 V 1.7793 h 3.90527 l 0.16797,-2.351566"
         fill-rule="evenodd"
         vector-effect="none" />
    </g>
    <g
       id="g16"
       font-style="normal"
       font-weight="400"
       font-size="7.8px"
       font-family="'MS Shell Dlg 2'"
       stroke="none"
       fill-opacity="1"
       fill="#a61215" />
  </g>
</svg>

<?xml version="1.0" encoding="UTF-8" standalone="no"?>
<svg width="11.2889mm" height="11.2889mm"
 viewBox="0 0 32 32"
 xmlns="http://www.w3.org/2000/svg" xmlns:xlink="http://www.w3.org/1999/xlink"  version="1.2" baseProfile="tiny">
<title>Qt SVG Document</title>
<desc>Generated with Qt</desc>
<defs>
</defs>
<g fill="none" stroke="black" stroke-width="1" fill-rule="evenodd" stroke-linecap="square" stroke-linejoin="bevel" >

<g fill="#a61215" fill-opacity="1" stroke="none" transform="matrix(1,0,0,1,0,0)"
font-family="MS Shell Dlg 2" font-size="7.8" font-weight="400" font-style="normal" 
>
<path vector-effect="non-scaling-stroke" fill-rule="evenodd" d="M37.2598,16 C37.2598,27.7415 27.7415,37.2598 16,37.2598 C4.25851,37.2598 -5.25984,27.7415 -5.25984,16 C-5.25984,4.25851 4.25851,-5.25984 16,-5.25984 C27.7415,-5.25984 37.2598,4.25851 37.2598,16 "/>
</g>

<g fill="#ffffff" fill-opacity="0.94902" stroke="none" transform="matrix(1,0,0,1,14.8661,12.0315)"
font-family="MS Shell Dlg 2" font-size="7.8" font-weight="400" font-style="normal" 
>
<path vector-effect="none" fill-rule="evenodd" d="M-4.01514,13.8311 C-3.55322,13.8311 -3.18929,13.9675 -2.92334,14.2405 C-2.65739,14.5134 -2.52441,14.8459 -2.52441,15.2378 C-2.52441,15.6997 -2.65739,16.0741 -2.92334,16.3611 C-3.18929,16.648 -3.55322,16.7915 -4.01514,16.7915 C-4.42106,16.7915 -4.7675,16.648 -5.05444,16.3611 C-5.34139,16.0741 -5.48486,15.6997 -5.48486,15.2378 C-5.48486,14.8459 -5.34139,14.5134 -5.05444,14.2405 C-4.7675,13.9675 -4.42106,13.8311 -4.01514,13.8311 M7.80566,13.8311 C8.21159,13.8311 8.55802,13.9675 8.84497,14.2405 C9.13192,14.5134 9.27539,14.8459 9.27539,15.2378 C9.27539,15.6997 9.13192,16.0741 8.84497,16.3611 C8.55802,16.648 8.21159,16.7915 7.80566,16.7915 C7.34375,16.7915 6.97632,16.648 6.70337,16.3611 C6.43042,16.0741 6.29395,15.6997 6.29395,15.2378 C6.29395,14.8459 6.43042,14.5134 6.70337,14.2405 C6.97632,13.9675 7.34375,13.8311 7.80566,13.8311 M10.9971,-2.48291 C11.389,-2.48291 11.6934,-2.38143 11.9104,-2.17847 C12.1274,-1.9755 12.2078,-1.71305 12.1519,-1.39111 C11.9839,0.0086263 11.8474,1.28239 11.7424,2.43018 C11.6375,3.57796 11.515,4.80973 11.375,6.12549 C11.263,6.69938 11.0146,7.1298 10.6296,7.41675 C10.2447,7.70369 9.82129,7.84717 9.35938,7.84717 L3.8584,7.84717 C3.59245,7.84717 3.337,7.89616 3.09204,7.99414 C2.84709,8.09212 2.58813,8.2076 2.31519,8.34058 C2.04224,8.47355 1.76229,8.58903 1.47534,8.68701 C1.1884,8.78499 0.890951,8.83398 0.583008,8.83398 C0.177083,8.83398 -0.333822,8.84798 -0.949707,8.87598 C-1.56559,8.90397 -2.11849,8.91797 -2.6084,8.91797 C-2.91634,8.91797 -3.22778,9.05444 -3.54272,9.32739 C-3.85767,9.60034 -4.08512,9.8208 -4.2251,9.98877 C-4.46305,10.2827 -4.64502,10.5452 -4.771,10.7761 C-4.89697,11.0071 -4.98796,11.3185 -5.04395,11.7104 L10.4302,11.7104 C10.5981,11.7104 10.7276,11.7909 10.8186,11.9519 C10.9096,12.1129 10.9551,12.2773 10.9551,12.4453 C10.9551,12.6133 10.9096,12.7778 10.8186,12.9387 C10.7276,13.0997 10.5981,13.1802 10.4302,13.1802 L-6.55566,13.1802 C-6.66764,12.4103 -6.65365,11.7664 -6.51367,11.2485 C-6.3737,10.7306 -6.11475,10.2267 -5.73682,9.73682 C-5.65283,9.65283 -5.53035,9.51636 -5.36938,9.32739 C-5.20841,9.13843 -5.09993,9.00195 -5.04395,8.91797 C-5.04395,8.77799 -5.10343,8.56453 -5.22241,8.27759 C-5.34139,7.99064 -5.42887,7.74919 -5.48486,7.55322 C-5.94678,6.16748 -6.39819,4.82373 -6.83911,3.52197 C-7.28003,2.22021 -7.73145,0.911458 -8.19336,-0.404297 C-8.5013,-1.35612 -8.86523,-2.04549 -9.28516,-2.47241 C-9.70508,-2.89933 -10.069,-3.11279 -10.377,-3.11279 L-11.9307,-3.11279 C-12.2806,-3.11279 -12.5535,-3.21427 -12.7495,-3.41724 C-12.9455,-3.6202 -13.0645,-3.83716 -13.1064,-4.06812 C-13.1484,-4.29907 -13.1064,-4.51253 -12.9805,-4.7085 C-12.8545,-4.90446 -12.6165,-5.00244 -12.2666,-5.00244 L-10.377,-5.00244 C-9.77507,-5.00244 -9.26766,-4.87297 -8.85474,-4.61401 C-8.44181,-4.35506 -8.08488,-4.06112 -7.78394,-3.73218 C-7.48299,-3.40324 -7.23804,-3.11279 -7.04907,-2.86084 C-6.86011,-2.60889 -6.72363,-2.48291 -6.63965,-2.48291 L10.9971,-2.48291 M-1.87354,1.7793 L-2.12549,-0.572266 L-6.13574,-0.572266 L-5.31689,1.7793 L-1.87354,1.7793 M-1.30664,5.83154 L-1.60059,3.66895 L-4.75,3.66895 L-4.01514,5.83154 L-1.30664,5.83154 M3.8584,3.66895 L0.331055,3.66895 L0.583008,5.83154 L3.8584,5.83154 L3.8584,3.66895 M3.8584,-0.572266 L-0.23584,-0.572266 L0.0161133,1.7793 L3.8584,1.7793 L3.8584,-0.572266 M9.44336,3.66895 L5.74805,3.66895 L5.74805,5.83154 L9.27539,5.83154 L9.44336,3.66895 M9.82129,-0.572266 L5.74805,-0.572266 L5.74805,1.7793 L9.65332,1.7793 L9.82129,-0.572266"/>
</g>

<g fill="#a61215" fill-opacity="1" stroke="none" transform="matrix(1,0,0,1,0,0)"
font-family="MS Shell Dlg 2" font-size="7.8" font-weight="400" font-style="normal" 
>
</g>
</g>
</svg>
